;FLAVOR:Marlin
;TIME:8130
;Filament used: 4.42498m
;Layer height: 0.2
;MINX:83.827
;MINY:101.602
;MINZ:0.2
;MAXX:147.298
;MAXY:133.398
;MAXZ:48
;Generated with Cura_SteamEngine 5.3.1
M140 S50
M105
M190 S50
M104 S210
M105
M109 S210
M82 ;absolute extrusion mode
; Ender 3 Custom Start G-code
G92 E0 ; Reset Extruder
G28 ; Home all axes
G1 Z2.0 F3000 ; Move Z Axis up little to prevent scratching of Heat Bed
G1 X0.1 Y20 Z0.3 F5000.0 ; Move to start position
G1 X0.1 Y200.0 Z0.3 F1500.0 E15 ; Draw the first line
G1 X0.4 Y200.0 Z0.3 F5000.0 ; Move to side a little
G1 X0.4 Y20 Z0.3 F1500.0 E30 ; Draw the second line
G92 E0 ; Reset Extruder
G1 Z2.0 F3000 ; Move Z Axis up little to prevent scratching of Heat Bed
G1 X5 Y20 Z0.3 F5000.0 ; Move over to prevent blob squish
G92 E0
G92 E0
G1 F2700 E-5
;LAYER_COUNT:240
;LAYER:0
M107
G0 F6000 X87.369 Y105.068 Z0.2
;TYPE:SKIRT
G1 F2700 E0
G1 F1200 X88.994 Y104.112 E0.07525
G1 X90.832 Y103.282 E0.15574
G1 X92.704 Y103.072 E0.23092
G1 X116.566 Y101.62 E1.18507
G1 X117.247 Y101.603 E1.21226
G1 X118.091 Y101.602 E1.24594
G1 X118.961 Y101.639 E1.2807
G1 X120.126 Y101.74 E1.32737
G1 X120.863 Y101.838 E1.35705
G1 X121.706 Y101.982 E1.39118
G1 X122.799 Y102.22 E1.43583
G1 X123.554 Y102.416 E1.46696
G1 X124.339 Y102.642 E1.49956
G1 X125.182 Y102.923 E1.53503
G1 X125.85 Y103.169 E1.56344
G1 X126.487 Y103.428 E1.59088
G1 X127.459 Y103.874 E1.63357
G1 X128.382 Y104.354 E1.67509
G1 X129.167 Y104.802 E1.71116
G1 X130.222 Y105.464 E1.76088
G1 X130.873 Y105.922 E1.79264
G1 X131.393 Y106.309 E1.81852
G1 X131.985 Y106.782 E1.84876
G1 X132.727 Y107.419 E1.88779
G1 X133.487 Y108.135 E1.92946
G1 X134.15 Y108.822 E1.96757
G1 X134.697 Y109.431 E2.00024
G1 X135.057 Y109.856 E2.02247
G1 X135.589 Y110.525 E2.05659
G1 X136.051 Y111.151 E2.08764
G1 X136.579 Y111.931 E2.12523
G1 X136.875 Y112.394 E2.14717
G1 X137.823 Y114.004 E2.22174
G1 X138.469 Y116.632 E2.32975
G1 X138.286 Y119.478 E2.44357
G1 X137.585 Y121.278 E2.52067
G1 X137.09 Y122.236 E2.56371
G1 X136.589 Y123.058 E2.60213
G1 X136.145 Y123.712 E2.63368
G1 X135.596 Y124.467 E2.67094
G1 X135.14 Y125.041 E2.7002
G1 X134.726 Y125.537 E2.72598
G1 X134.085 Y126.243 E2.76404
G1 X133.413 Y126.932 E2.80246
G1 X133.019 Y127.309 E2.82422
G1 X132.272 Y127.975 E2.86416
G1 X131.422 Y128.66 E2.90773
G1 X130.346 Y129.45 E2.96101
G1 X129.46 Y130.028 E3.00323
G1 X128.515 Y130.571 E3.04673
G1 X127.714 Y130.998 E3.08296
G1 X126.972 Y131.352 E3.11577
G1 X125.977 Y131.776 E3.15894
G1 X125.164 Y132.084 E3.19364
G1 X124.479 Y132.316 E3.22251
G1 X123.746 Y132.538 E3.25308
G1 X122.954 Y132.746 E3.28576
G1 X122.242 Y132.908 E3.3149
G1 X121.45 Y133.061 E3.3471
G1 X120.363 Y133.221 E3.39095
G1 X119.115 Y133.342 E3.44099
G1 X118.421 Y133.387 E3.46875
G1 X118.032 Y133.398 E3.48428
G1 X117.041 Y133.396 E3.52383
G1 X91.714 Y131.866 E4.53653
G1 X89.707 Y131.226 E4.62061
G1 X89.136 Y130.968 E4.64562
G1 X87.264 Y129.815 E4.73337
G1 X86.542 Y129.228 E4.77051
G1 X85.139 Y127.316 E4.86516
G1 X84.313 Y125.523 E4.94395
G1 X83.827 Y123.343 E5.0331
G1 X83.828 Y111.577 E5.5027
G1 X84.327 Y109.568 E5.58532
G1 X84.783 Y108.323 E5.63824
G1 X85.839 Y106.646 E5.71734
G1 X87.369 Y105.068 E5.80506
G0 F6000 X87.619 Y105.386
G1 F1200 X89.197 Y104.457 E5.87815
G1 X90.938 Y103.673 E5.95436
G1 X92.749 Y103.47 E6.02709
G1 X116.576 Y102.02 E6.97984
G1 X117.247 Y102.003 E7.00663
G1 X118.074 Y102.002 E7.03963
G1 X118.927 Y102.038 E7.07371
G1 X120.073 Y102.137 E7.11962
G1 X120.81 Y102.235 E7.14929
G1 X121.621 Y102.373 E7.18213
G1 X122.699 Y102.607 E7.22615
G1 X123.443 Y102.8 E7.25683
G1 X124.228 Y103.026 E7.28944
G1 X125.044 Y103.298 E7.32377
G1 X125.699 Y103.539 E7.35162
G1 X126.32 Y103.792 E7.37838
G1 X127.274 Y104.229 E7.42027
G1 X128.197 Y104.709 E7.46179
G1 X128.954 Y105.141 E7.49658
G1 X130.009 Y105.803 E7.54629
G1 X130.634 Y106.243 E7.57679
G1 X131.143 Y106.622 E7.60212
G1 X131.724 Y107.086 E7.6318
G1 X132.466 Y107.723 E7.67083
G1 X133.199 Y108.413 E7.71101
G1 X133.853 Y109.09 E7.74858
G1 X134.392 Y109.689 E7.78074
G1 X134.744 Y110.105 E7.80249
G1 X135.267 Y110.763 E7.83603
G1 X135.729 Y111.389 E7.86709
G1 X136.242 Y112.147 E7.90362
G1 X136.53 Y112.597 E7.92494
G1 X137.449 Y114.158 E7.99724
G1 X138.066 Y116.667 E8.10036
G1 X137.891 Y119.389 E8.20923
G1 X137.229 Y121.095 E8.28227
G1 X136.748 Y122.028 E8.32416
G1 X136.247 Y122.85 E8.36258
G1 X135.822 Y123.477 E8.39281
G1 X135.283 Y124.218 E8.42939
G1 X134.833 Y124.785 E8.45828
G1 X134.43 Y125.268 E8.48338
G1 X133.798 Y125.964 E8.52091
G1 X133.137 Y126.643 E8.55873
G1 X132.753 Y127.01 E8.57993
G1 X132.006 Y127.676 E8.61987
G1 X131.185 Y128.338 E8.66196
G1 X130.128 Y129.115 E8.71432
G1 X129.26 Y129.681 E8.75568
G1 X128.327 Y130.218 E8.79865
G1 X127.542 Y130.637 E8.83416
G1 X126.815 Y130.984 E8.86631
G1 X125.835 Y131.402 E8.90884
G1 X125.035 Y131.705 E8.94298
G1 X124.363 Y131.933 E8.9713
G1 X123.644 Y132.151 E9.00129
G1 X122.865 Y132.356 E9.03344
G1 X122.166 Y132.515 E9.06205
G1 X121.391 Y132.665 E9.09356
G1 X120.324 Y132.823 E9.13661
G1 X119.089 Y132.943 E9.18613
G1 X118.409 Y132.987 E9.21333
G1 X118.032 Y132.998 E9.22838
G1 X117.065 Y132.997 E9.26698
G1 X91.788 Y131.47 E10.27768
G1 X89.872 Y130.861 E10.35792
G1 X89.301 Y130.603 E10.38293
G1 X87.474 Y129.475 E10.46862
G1 X86.838 Y128.954 E10.50144
G1 X85.483 Y127.107 E10.59287
G1 X84.694 Y125.395 E10.6681
G1 X84.227 Y123.301 E10.75373
G1 X84.228 Y111.625 E11.21975
G1 X84.703 Y109.706 E11.29865
G1 X85.146 Y108.496 E11.35008
G1 X86.153 Y106.897 E11.4255
G1 X87.619 Y105.386 E11.50953
G0 F6000 X87.869 Y105.704
G1 F1200 X89.4 Y104.802 E11.58045
G1 X91.047 Y104.063 E11.6525
G1 X92.773 Y103.869 E11.72182
G1 X116.586 Y102.42 E12.674
G1 X117.247 Y102.403 E12.7004
G1 X118.057 Y102.402 E12.73272
G1 X118.893 Y102.437 E12.76612
G1 X120.02 Y102.534 E12.81127
G1 X120.757 Y102.632 E12.84094
G1 X121.536 Y102.764 E12.87248
G1 X122.599 Y102.994 E12.91588
G1 X123.332 Y103.184 E12.94611
G1 X124.117 Y103.41 E12.97871
G1 X124.906 Y103.673 E13.01191
G1 X125.548 Y103.909 E13.03921
G1 X126.153 Y104.156 E13.06529
G1 X127.107 Y104.593 E13.10717
G1 X127.999 Y105.056 E13.14728
G1 X128.742 Y105.48 E13.18142
G1 X129.779 Y106.13 E13.23027
G1 X130.395 Y106.563 E13.26032
G1 X130.893 Y106.935 E13.28513
G1 X131.463 Y107.39 E13.31424
G1 X132.205 Y108.027 E13.35327
G1 X132.911 Y108.691 E13.39196
G1 X133.565 Y109.368 E13.42952
G1 X134.087 Y109.948 E13.46067
G1 X134.431 Y110.354 E13.48191
G1 X134.945 Y111.001 E13.51489
G1 X135.407 Y111.627 E13.54594
G1 X135.905 Y112.362 E13.58137
G1 X136.185 Y112.8 E13.60212
G1 X137.076 Y114.313 E13.6722
G1 X137.663 Y116.701 E13.77035
G1 X137.496 Y119.301 E13.87434
G1 X136.856 Y120.95 E13.94493
G1 X136.406 Y121.82 E13.98403
G1 X135.905 Y122.642 E14.02245
G1 X135.499 Y123.242 E14.05136
G1 X134.97 Y123.969 E14.08725
G1 X134.526 Y124.529 E14.11577
G1 X134.134 Y124.999 E14.1402
G1 X133.512 Y125.685 E14.17716
G1 X132.86 Y126.354 E14.21444
G1 X132.487 Y126.711 E14.23505
G1 X131.74 Y127.377 E14.27499
G1 X130.948 Y128.016 E14.31561
G1 X129.91 Y128.78 E14.36705
G1 X129.06 Y129.334 E14.40754
G1 X128.138 Y129.865 E14.45001
G1 X127.369 Y130.276 E14.48481
G1 X126.658 Y130.616 E14.51627
G1 X125.693 Y131.028 E14.55815
G1 X124.906 Y131.326 E14.59173
G1 X124.247 Y131.55 E14.61951
G1 X123.542 Y131.764 E14.64892
G1 X122.776 Y131.966 E14.68054
G1 X122.09 Y132.122 E14.70862
G1 X121.332 Y132.269 E14.73943
G1 X120.285 Y132.425 E14.78168
G1 X119.063 Y132.544 E14.83069
G1 X118.397 Y132.587 E14.85732
G1 X118.02 Y132.598 E14.87238
G1 X117.089 Y132.598 E14.90953
G1 X91.862 Y131.074 E15.91823
G1 X90.037 Y130.496 E15.99464
G1 X89.466 Y130.238 E16.01965
G1 X87.727 Y129.165 E16.1012
G1 X87.132 Y128.678 E16.13189
G1 X85.828 Y126.9 E16.21989
G1 X85.074 Y125.265 E16.29176
G1 X84.627 Y123.259 E16.37378
G1 X84.628 Y111.673 E16.83621
G1 X85.079 Y109.844 E16.91139
G1 X85.508 Y108.673 E16.96117
G1 X86.47 Y107.145 E17.03323
G1 X87.869 Y105.704 E17.11339
G0 F6000 X88.119 Y106.021
G1 F1200 X89.564 Y105.167 E17.18038
G1 X91.153 Y104.454 E17.2499
G1 X92.818 Y104.267 E17.31677
G1 X116.596 Y102.82 E18.26756
G1 X117.248 Y102.803 E18.29359
G1 X118.04 Y102.802 E18.3252
G1 X118.859 Y102.836 E18.35791
G1 X119.967 Y102.931 E18.4023
G1 X120.704 Y103.029 E18.43197
G1 X121.452 Y103.155 E18.46225
G1 X122.499 Y103.381 E18.505
G1 X123.221 Y103.568 E18.53477
G1 X124.006 Y103.794 E18.56737
G1 X124.768 Y104.048 E18.59943
G1 X125.397 Y104.279 E18.62617
G1 X125.986 Y104.52 E18.65157
G1 X126.94 Y104.957 E18.69345
G1 X127.801 Y105.404 E18.73217
G1 X128.53 Y105.819 E18.76565
G1 X129.549 Y106.457 E18.81364
G1 X130.156 Y106.884 E18.84326
G1 X130.644 Y107.248 E18.86756
G1 X131.202 Y107.693 E18.89604
G1 X131.931 Y108.319 E18.93439
G1 X132.623 Y108.969 E18.97229
G1 X133.268 Y109.636 E19.00932
G1 X133.782 Y110.206 E19.03995
G1 X134.118 Y110.603 E19.06071
G1 X134.623 Y111.239 E19.09312
G1 X135.085 Y111.865 E19.12418
G1 X135.568 Y112.578 E19.15855
G1 X135.84 Y113.003 E19.17869
G1 X136.702 Y114.467 E19.24649
G1 X137.26 Y116.736 E19.33975
G1 X137.101 Y119.214 E19.43886
G1 X136.501 Y120.766 E19.50527
G1 X136.064 Y121.612 E19.54328
G1 X135.563 Y122.434 E19.5817
G1 X135.175 Y123.007 E19.60932
G1 X134.656 Y123.721 E19.64455
G1 X134.219 Y124.273 E19.67265
G1 X133.837 Y124.731 E19.69645
G1 X133.226 Y125.406 E19.73279
G1 X132.583 Y126.065 E19.76954
G1 X132.21 Y126.422 E19.79014
G1 X131.489 Y127.066 E19.82873
G1 X130.711 Y127.694 E19.86863
G1 X129.691 Y128.445 E19.91919
G1 X128.86 Y128.987 E19.95879
G1 X127.949 Y129.512 E20.00075
G1 X127.196 Y129.915 E20.03484
G1 X126.501 Y130.248 E20.0656
G1 X125.551 Y130.654 E20.10683
G1 X124.777 Y130.947 E20.13986
G1 X124.131 Y131.167 E20.1671
G1 X123.44 Y131.377 E20.19593
G1 X122.687 Y131.576 E20.22701
G1 X122.014 Y131.729 E20.25456
G1 X121.273 Y131.873 E20.28469
G1 X120.243 Y132.027 E20.32625
G1 X119.651 Y132.09 E20.35001
G1 X119.037 Y132.145 E20.37462
G1 X118.385 Y132.187 E20.40069
G1 X118.008 Y132.198 E20.41575
G1 X117.089 Y132.198 E20.45243
G1 X91.938 Y130.678 E21.45809
G1 X90.202 Y130.131 E21.53074
G1 X89.631 Y129.873 E21.55574
G1 X87.938 Y128.825 E21.63521
G1 X87.427 Y128.403 E21.66166
G1 X86.173 Y126.693 E21.7463
G1 X85.454 Y125.135 E21.81478
G1 X85.027 Y123.217 E21.89321
G1 X85.028 Y111.719 E22.35212
G1 X85.455 Y109.982 E22.42351
G1 X85.871 Y108.846 E22.4718
G1 X86.784 Y107.396 E22.54019
G1 X88.119 Y106.021 E22.61668
G0 F6000 X88.37 Y106.337
G1 F1200 X89.728 Y105.532 E22.67968
G1 X91.259 Y104.845 E22.74666
G1 X92.863 Y104.665 E22.81108
G1 X116.607 Y103.22 E23.76051
G1 X117.249 Y103.203 E23.78614
G1 X118.024 Y103.202 E23.81707
G1 X118.825 Y103.235 E23.84907
G1 X119.933 Y103.33 E23.89345
G1 X120.638 Y103.424 E23.92184
G1 X121.368 Y103.546 E23.95138
G1 X122.399 Y103.768 E23.99347
G1 X123.11 Y103.952 E24.02279
G1 X123.895 Y104.178 E24.05539
G1 X124.63 Y104.423 E24.08631
G1 X125.245 Y104.649 E24.11246
G1 X125.819 Y104.884 E24.13722
G1 X126.773 Y105.321 E24.1791
G1 X127.603 Y105.752 E24.21643
G1 X128.318 Y106.158 E24.24924
G1 X129.319 Y106.784 E24.29636
G1 X129.917 Y107.204 E24.32553
G1 X130.395 Y107.561 E24.34934
G1 X130.941 Y107.996 E24.3772
G1 X131.657 Y108.611 E24.41488
G1 X132.349 Y109.261 E24.45277
G1 X132.971 Y109.904 E24.48847
G1 X133.477 Y110.465 E24.51863
G1 X133.805 Y110.852 E24.53888
G1 X134.301 Y111.476 E24.57069
G1 X134.754 Y112.09 E24.60114
G1 X135.231 Y112.793 E24.63505
G1 X135.495 Y113.206 E24.65462
G1 X136.328 Y114.621 E24.72015
G1 X136.857 Y116.771 E24.80852
G1 X136.706 Y119.127 E24.90275
G1 X136.146 Y120.582 E24.96497
G1 X135.709 Y121.428 E25.00298
G1 X135.232 Y122.21 E25.03954
G1 X134.852 Y122.772 E25.06661
G1 X134.342 Y123.473 E25.10121
G1 X133.912 Y124.017 E25.12889
G1 X133.54 Y124.463 E25.15207
G1 X132.94 Y125.127 E25.18779
G1 X132.307 Y125.776 E25.22397
G1 X131.943 Y126.124 E25.24407
G1 X131.238 Y126.755 E25.28183
G1 X130.474 Y127.372 E25.32103
G1 X129.473 Y128.11 E25.37066
G1 X128.66 Y128.64 E25.4094
G1 X127.76 Y129.159 E25.45086
G1 X127.023 Y129.554 E25.48424
G1 X126.344 Y129.88 E25.5143
G1 X125.409 Y130.28 E25.55489
G1 X124.648 Y130.568 E25.58736
G1 X124.015 Y130.784 E25.61406
G1 X123.338 Y130.99 E25.6423
G1 X122.598 Y131.186 E25.67286
G1 X121.938 Y131.336 E25.69987
G1 X121.214 Y131.477 E25.72931
G1 X120.2 Y131.629 E25.77023
G1 X119.615 Y131.692 E25.79372
G1 X119.011 Y131.746 E25.81792
G1 X118.373 Y131.787 E25.84344
G1 X117.996 Y131.798 E25.85849
G1 X117.089 Y131.798 E25.89469
G1 X92.014 Y130.282 E26.89731
G1 X90.367 Y129.766 E26.9662
G1 X89.796 Y129.508 E26.99121
G1 X88.193 Y128.517 E27.06643
G1 X87.72 Y128.126 E27.09092
G1 X86.518 Y126.488 E27.17201
G1 X85.835 Y125.006 E27.23714
G1 X85.427 Y123.175 E27.31201
G1 X85.428 Y111.769 E27.76725
G1 X85.831 Y110.12 E27.835
G1 X86.233 Y109.023 E27.88163
G1 X87.101 Y107.644 E27.94667
G1 X88.37 Y106.337 E28.01937
G0 F6000 X88.621 Y106.653
G1 F1200 X89.892 Y105.897 E28.0784
G1 X91.365 Y105.236 E28.14284
G1 X92.908 Y105.063 E28.20481
G1 X116.618 Y103.62 E29.15288
G1 X117.25 Y103.603 E29.17811
G1 X118.008 Y103.602 E29.20836
G1 X118.791 Y103.634 E29.23964
G1 X119.899 Y103.729 E29.28402
G1 X120.573 Y103.819 E29.31116
G1 X121.284 Y103.937 E29.33993
G1 X122.299 Y104.155 E29.38136
G1 X123 Y104.336 E29.41026
G1 X123.769 Y104.557 E29.4422
G1 X124.492 Y104.798 E29.47261
G1 X125.093 Y105.019 E29.49817
G1 X125.652 Y105.248 E29.52228
G1 X126.606 Y105.685 E29.56416
G1 X127.406 Y106.1 E29.60013
G1 X128.106 Y106.497 E29.63225
G1 X129.089 Y107.112 E29.67853
G1 X129.678 Y107.525 E29.70724
G1 X130.146 Y107.874 E29.73054
G1 X130.68 Y108.299 E29.75778
G1 X131.383 Y108.903 E29.79477
G1 X132.075 Y109.553 E29.83267
G1 X132.674 Y110.172 E29.86705
G1 X133.172 Y110.724 E29.89672
G1 X133.492 Y111.101 E29.91645
G1 X133.979 Y111.713 E29.94767
G1 X134.423 Y112.315 E29.97753
G1 X134.894 Y113.009 E30.011
G1 X135.15 Y113.409 E30.02996
G1 X135.955 Y114.776 E30.09327
G1 X136.454 Y116.806 E30.17671
G1 X136.311 Y119.039 E30.26601
G1 X135.79 Y120.399 E30.32414
G1 X135.367 Y121.22 E30.361
G1 X134.9 Y121.986 E30.39681
G1 X134.528 Y122.537 E30.42334
G1 X134.028 Y123.225 E30.45729
G1 X133.605 Y123.761 E30.48454
G1 X133.243 Y124.195 E30.5071
G1 X132.654 Y124.848 E30.5422
G1 X132.03 Y125.487 E30.57784
G1 X131.676 Y125.826 E30.59741
G1 X130.986 Y126.444 E30.63438
G1 X130.237 Y127.05 E30.67283
G1 X129.254 Y127.775 E30.72158
G1 X128.46 Y128.293 E30.75942
G1 X127.56 Y128.812 E30.80088
G1 X126.85 Y129.193 E30.83304
G1 X126.186 Y129.512 E30.86244
G1 X125.267 Y129.906 E30.90235
G1 X124.519 Y130.189 E30.93427
G1 X123.898 Y130.401 E30.96046
G1 X123.235 Y130.603 E30.98812
G1 X122.51 Y130.796 E31.01807
G1 X121.861 Y130.943 E31.04463
G1 X121.154 Y131.081 E31.07338
G1 X120.157 Y131.231 E31.11362
G1 X119.579 Y131.294 E31.13682
G1 X118.985 Y131.347 E31.16063
G1 X118.361 Y131.387 E31.18558
G1 X117.984 Y131.398 E31.20064
G1 X117.109 Y131.398 E31.23556
G1 X116.639 Y131.375 E31.25434
G1 X92.088 Y129.886 E32.23602
G1 X90.532 Y129.401 E32.30107
G1 X89.961 Y129.143 E32.32608
G1 X88.448 Y128.209 E32.39705
G1 X88.015 Y127.851 E32.41947
G1 X86.862 Y126.279 E32.49728
G1 X86.216 Y124.878 E32.55886
G1 X85.827 Y123.133 E32.63021
G1 X85.828 Y111.818 E33.08182
G1 X86.207 Y110.257 E33.14593
G1 X86.595 Y109.197 E33.19098
G1 X87.415 Y107.895 E33.2524
G1 X88.621 Y106.653 E33.32149
G0 F6000 X88.873 Y106.968
G1 F1200 X90.056 Y106.262 E33.37648
G1 X91.474 Y105.626 E33.43851
G1 X92.932 Y105.462 E33.49706
G1 X116.629 Y104.02 E34.44461
G1 X117.251 Y104.003 E34.46945
G1 X117.992 Y104.002 E34.49902
G1 X118.757 Y104.033 E34.52958
G1 X119.865 Y104.128 E34.57396
G1 X120.508 Y104.214 E34.59986
G1 X121.2 Y104.328 E34.62785
G1 X122.199 Y104.542 E34.66863
G1 X122.889 Y104.72 E34.69707
G1 X123.643 Y104.937 E34.72838
G1 X124.354 Y105.173 E34.75828
G1 X124.941 Y105.389 E34.78325
G1 X125.485 Y105.612 E34.80671
G1 X126.439 Y106.049 E34.84859
G1 X127.209 Y106.448 E34.88321
G1 X127.894 Y106.836 E34.91463
G1 X128.859 Y107.439 E34.96004
G1 X129.439 Y107.846 E34.98832
G1 X129.897 Y108.187 E35.01111
G1 X130.419 Y108.602 E35.03773
G1 X131.109 Y109.195 E35.07404
G1 X131.801 Y109.845 E35.11193
G1 X132.377 Y110.44 E35.14499
G1 X132.867 Y110.983 E35.17418
