; generated by PrusaSlicer 2.6.0+win64 on 2025-01-25 at 16:41:32 UTC

; 

; external perimeters extrusion width = 0.63mm
; perimeters extrusion width = 0.66mm
; infill extrusion width = 0.66mm
; solid infill extrusion width = 0.66mm
; top infill extrusion width = 0.60mm
; support material extrusion width = 0.54mm
; first layer extrusion width = 0.63mm

M201 X500 Y500 Z100 E5000 ; sets maximum accelerations, mm/sec^2
M203 X500 Y500 Z10 E60 ; sets maximum feedrates, mm / sec
M204 S500 T1000 ; sets acceleration (S) and retract acceleration (R), mm/sec^2
M205 X8.00 Y8.00 Z0.40 E5.00 ; sets the jerk limits, mm/sec
M205 S0 T0 ; sets the minimum extruding and travel feed rate, mm/sec
;TYPE:Custom
G90 ; use absolute coordinates
M83 ; extruder relative mode
M104 S150 ; set temporary nozzle temp to prevent oozing during homing and auto bed leveling
M140 S60 ; set final bed temp
M190 S60 ; wait for bed temp to stabilize
G28 ; home all axis
G29 ; auto bed levelling
G1 Z50 F240
G1 X2.0 Y10 F3000
M104 S210 ; set final nozzle temp
M109 S210 ; wait for nozzle temp to stabilize
G1 Z0.28 F240
G92 E0
G1 X2.0 Y140 E10 F1500 ; prime the nozzle
G1 X2.3 Y140 F5000
G92 E0
G1 X2.3 Y10 E10 F1200 ; prime the nozzle
G92 E0
G21 ; set units to millimeters
G90 ; use absolute coordinates
M83 ; use relative distances for extrusion
; Filament gcode
M107
;LAYER_CHANGE
;Z:0.3
;HEIGHT:0.3
;BEFORE_LAYER_CHANGE
G92 E0
;0.3


G1 E-6 F3600
G1 Z.3 F9000
;AFTER_LAYER_CHANGE
;0.3
G1 X122.007 Y141.385
G1 E6 F2400
M204 S500
;TYPE:Skirt/Brim
;WIDTH:0.63
G1 F1200
G1 X122.878 Y140.653 E.08026
G1 X124.178 Y140.021 E.10197
G1 X125.416 Y139.773 E.08907
G1 X150.31 Y138.301 E1.75927
G1 X152.757 Y138.498 E.17319
G1 X155.157 Y139.017 E.17323
G1 X157.448 Y139.84 E.17174
G1 X159.579 Y140.938 E.16912
G1 X161.462 Y142.23 E.1611
G1 X163.315 Y143.892 E.1756
G1 X164.9 Y145.748 E.17218
G1 X166.215 Y147.79 E.17134
G1 X166.614 Y148.879 E.08182
G1 X166.745 Y150.037 E.08221
G1 X166.602 Y151.169 E.08049
G1 X166.166 Y152.305 E.08584
G1 X165.031 Y154.074 E.14828
G1 X163.689 Y155.712 E.14939
G1 X162.161 Y157.195 E.15022
G1 X160.526 Y158.455 E.14562
G1 X159.34 Y159.203 E.09892
G1 X158.07 Y159.875 E.10136
G1 X156.768 Y160.441 E.10016
G1 X155.506 Y160.879 E.09424
G1 X154.005 Y161.273 E.10948
G1 X152.618 Y161.522 E.09941
G1 X149.938 Y161.701 E.18949
G1 X125.087 Y160.19 E1.75641
G1 X124.013 Y159.923 E.07807
G1 X123.104 Y159.492 E.07097
G1 X122.225 Y158.831 E.07759
G1 X121.516 Y158.017 E.07615
G1 X121.137 Y157.39 E.05169
G1 X120.85 Y156.721 E.05136
G1 X120.559 Y155.353 E.09867
G1 X120.554 Y144.71 E.75083
G1 X120.745 Y143.612 E.07862
G1 X121.201 Y142.489 E.08551
G1 X121.954 Y141.458 E.09007
; printing object 3DBenchy.stl id:0 copy 0
G1 E-4.2 F3600
;WIPE_START
G1 F7200
G1 X122.878 Y140.653 E-.5821
G1 X124.178 Y140.021 E-.6866
G1 X125.275 Y139.801 E-.5313
;WIPE_END
G1 X160.178 Y151.247 F9000
G1 E6 F2400
;TYPE:Perimeter
;WIDTH:0.63
G1 F1200
G1 X160.86 Y150.282 E.08336
G1 X161.18 Y149.726 E.04526
G1 X161.279 Y149.459 E.02009
G1 X161.336 Y149.024 E.03095
;WIDTH:0.64595
G1 X161.26 Y148.517 E.03719
;WIDTH:0.674147
G1 X161.115 Y148.165 E.02895
G1 X161.36 Y148.459 E.02911
;WIDTH:0.64595
G1 X161.797 Y149.063 E.05408
;WIDTH:0.63
G1 X162.247 Y149.805 E.06122
G1 X162.29 Y150.031 E.01623
G1 X162.242 Y150.204 E.01267
G1 X161.986 Y150.641 E.03573
G1 X161.579 Y151.258 E.05214
G1 X161.183 Y151.794 E.04701
G1 X160.988 Y151.604 E.01921
G1 X160.665 Y151.387 E.02745
G1 X160.264 Y151.272 E.02943
G1 X161.69 Y150.002 F9000
;WIDTH:0.656479
G1 F1200
G1 X161.353 Y150.566 E.04852
;WIDTH:0.645573
G1 X161.089 Y150.956 E.03414
G1 E-4.2 F3600
;WIPE_START
G1 F7200
G1 X161.353 Y150.566 E-.2237
G1 X161.69 Y150.002 E-.31208
;WIPE_END
G1 E-1.26422 F3600
G1 X160.784 Y153.061 F9000
G1 E6 F2400
;TYPE:External perimeter
;WIDTH:0.742403
G1 F1200
G1 X160.541 Y153.307 E.02924
G1 E-4.2 F3600
;WIPE_START
G1 F7200
G1 X160.784 Y153.061 E-.16425
;WIPE_END
G1 E-1.63575 F3600
G1 X156.539 Y151.433 F9000
G1 E6 F2400
;TYPE:Perimeter
;WIDTH:0.873857
G1 F1200
G1 X156.555 Y151.32 E.01152
;WIDTH:0.827328
G1 X156.57 Y151.208 E.01075
;WIDTH:0.780799
G1 X156.586 Y151.095 E.0102
;WIDTH:0.73427
G1 X156.602 Y150.982 E.00954
;WIDTH:0.687741
G1 X156.617 Y150.87 E.00879
;WIDTH:0.641213
G1 X156.899 Y150.058 E.06184
;WIDTH:0.627385
G1 X157.046 Y150.15 E.01218
G1 X157.481 Y150.301 E.03233
G1 X157.269 Y150.628 E.02737
;WIDTH:0.641213
G1 X156.961 Y151.045 E.0373
;WIDTH:0.687741
G1 X156.877 Y151.122 E.00886
;WIDTH:0.73427
G1 X156.792 Y151.2 E.00964
;WIDTH:0.780799
G1 X156.708 Y151.278 E.01024
;WIDTH:0.827328
G1 X156.624 Y151.355 E.01084
;WIDTH:0.873857
G1 X156.606 Y151.372 E.0025
G1 E-4.2 F3600
;WIPE_START
G1 F7200
G1 X156.555 Y151.32 E-.0346
G1 X156.57 Y151.208 E-.05367
G1 X156.586 Y151.095 E-.05421
G1 X156.602 Y150.982 E-.05421
G1 X156.617 Y150.87 E-.05367
G1 X156.899 Y150.058 E-.4083
G1 X157.046 Y150.15 E-.08237
G1 X157.481 Y150.301 E-.21872
G1 X157.269 Y150.628 E-.18511
G1 X156.961 Y151.045 E-.24625
G1 X156.877 Y151.122 E-.05413
G1 X156.792 Y151.2 E-.0548
G1 X156.708 Y151.278 E-.05445
G1 X156.624 Y151.355 E-.05413
G1 X156.606 Y151.372 E-.01176
;WIPE_END
G1 E-.17962 F3600
G1 X129.646 Y146.029 F9000
G1 E6 F2400
;WIDTH:0.63
G1 F1200
G1 X129.041 Y145.685 E.0491
G1 X128.445 Y145.514 E.04374
;WIDTH:0.667724
G1 X128.221 Y145.469 E.01719
;WIDTH:0.705448
G1 X127.996 Y145.424 E.01835
;WIDTH:0.743172
G1 X127.771 Y145.38 E.01941
G1 X127.479 Y145.382 E.02472
;WIDTH:0.759437
G1 X126.65 Y145.469 E.07226
;WIDTH:0.789725
G1 X126.392 Y145.53 E.02398
;WIDTH:0.820014
G1 X126.135 Y145.59 E.02487
G1 X125.649 Y145.824 E.05084
G1 X125.649 Y145.228 E.05617
G1 X125.696 Y144.952 E.02639
G1 X125.803 Y144.884 E.01195
G1 X126.006 Y144.851 E.01938
;WIDTH:0.819686
G1 X126.452 Y144.803 E.04226
;WIDTH:0.777889
G1 X126.897 Y144.755 E.03983
;WIDTH:0.743172
G1 X127.789 Y144.704 E.07564
G1 X128.016 Y144.671 E.01942
;WIDTH:0.705448
G1 X128.243 Y144.638 E.01834
;WIDTH:0.667724
G1 X128.47 Y144.605 E.01726
;WIDTH:0.63
G1 X149.226 Y143.337 E1.46701
G1 X150.055 Y143.313 E.05851
G1 X151.043 Y143.348 E.06974
G1 X151.775 Y143.422 E.0519
G1 X152.522 Y143.54 E.05335
G1 X153.531 Y143.768 E.07298
G1 X154.261 Y143.985 E.05373
G1 X155.235 Y144.346 E.07328
G1 X156.017 Y144.7 E.06056
G1 X156.858 Y145.151 E.06732
G1 X157.302 Y145.428 E.03692
G1 X158.372 Y146.178 E.09218
G1 X159.358 Y147.037 E.09225
G1 X157.854 Y147.04 E.1061
G1 X157.239 Y147.114 E.0437
G1 X156.792 Y147.305 E.03429
G1 X156.72 Y147.255 E.00618
G1 X156.164 Y147.061 E.04154
G1 X155.677 Y147.061 E.03436
G1 X155.307 Y147.155 E.02693
G1 X154.942 Y147.313 E.02806
G1 X154.589 Y147.619 E.03296
G1 X154.339 Y147.44 E.02169
G1 X153.873 Y147.197 E.03708
G1 X153.488 Y147.072 E.02856
G1 X153.087 Y147.037 E.0284
G1 X152.522 Y147.13 E.0404
G1 X152.135 Y147.297 E.02974
G1 X151.874 Y147.158 E.02086
G1 X151.561 Y147.071 E.02292
G1 X151.063 Y147.043 E.03519
G1 X150.69 Y147.122 E.0269
G1 X150.186 Y147.365 E.03947
G1 X150.047 Y147.285 E.01131
G1 X149.58 Y147.089 E.03573
G1 X149.027 Y147.037 E.03918
G1 X148.664 Y147.108 E.02609
G1 X148.109 Y147.325 E.04204
G1 X147.741 Y147.62 E.03327
G1 X147.49 Y147.936 E.02847
;WIDTH:0.664702
G1 X147.261 Y148.432 E.04091
;WIDTH:0.708769
G1 X147.229 Y148.525 E.0079
;WIDTH:0.752836
G1 X147.197 Y148.619 E.00853
;WIDTH:0.796903
G1 X147.165 Y148.712 E.00899
;WIDTH:0.84097
G1 X147.133 Y148.805 E.00953
;WIDTH:0.885037
G1 X147.101 Y148.898 E.01007
G1 X147.06 Y148.807 E.01022
;WIDTH:0.84097
G1 X147.018 Y148.716 E.00971
;WIDTH:0.796903
G1 X146.977 Y148.625 E.00912
;WIDTH:0.752836
G1 X146.936 Y148.534 E.00857
;WIDTH:0.708769
G1 X146.895 Y148.443 E.00802
;WIDTH:0.664702
G1 X146.673 Y147.855 E.04706
;WIDTH:0.63
G1 X146.459 Y147.436 E.03319
G1 X146.177 Y146.998 E.03675
G1 X145.736 Y146.523 E.04573
G1 X145.161 Y146.107 E.05007
G1 X144.554 Y145.841 E.04675
G1 X143.938 Y145.692 E.04471
G1 X143.355 Y145.624 E.04141
G1 X141.767 Y145.588 E.11206
G1 X141.144 Y145.654 E.0442
G1 X140.738 Y145.797 E.03037
G1 X140.371 Y146.007 E.02983
G1 X140.129 Y146.233 E.02336
G1 X139.529 Y145.836 E.05076
G1 X139.093 Y145.637 E.03381
G1 X138.316 Y145.46 E.05622
G1 X137.459 Y145.439 E.06048
G1 X136.896 Y145.514 E.04007
G1 X136.534 Y145.613 E.02648
G1 X135.835 Y145.921 E.05389
G1 X135.437 Y145.737 E.03093
G1 X134.774 Y145.599 E.04778
G1 X131.526 Y145.61 E.22914
G1 X130.976 Y145.571 E.0389
G1 X130.474 Y145.612 E.03553
G1 X129.967 Y145.793 E.03798
G1 X129.719 Y145.976 E.02174
G1 E-4.2 F3600
;WIPE_START
G1 F7200
G1 X129.041 Y145.685 E-.35046
G1 X128.445 Y145.514 E-.29452
G1 X128.221 Y145.469 E-.10853
G1 X127.996 Y145.424 E-.10899
G1 X127.771 Y145.38 E-.1089
G1 X127.479 Y145.382 E-.1387
G1 X126.65 Y145.469 E-.39594
G1 X126.392 Y145.53 E-.12593
G1 X126.135 Y145.59 E-.12536
G1 X126.054 Y145.629 E-.04267
;WIPE_END
G1 X152.087 Y153.817 F9000
G1 E6 F2400
;WIDTH:0.848698
G1 F1200
G1 X152.126 Y153.763 E.00652
;WIDTH:0.814737
G1 X152.165 Y153.71 E.00616
;WIDTH:0.780775
G1 X152.205 Y153.656 E.006
;WIDTH:0.746814
G1 X152.263 Y153.537 E.01127
;WIDTH:0.703216
G1 X152.321 Y153.417 E.01062
;WIDTH:0.659618
G1 X152.38 Y153.298 E.00986
;WIDTH:0.61602
G1 X152.438 Y153.178 E.00917
;WIDTH:0.616779
G1 X152.562 Y152.736 E.03163
G1 X152.52 Y152.486 E.01747
;WIDTH:0.579352
G1 X152.477 Y152.235 E.01636
;WIDTH:0.557328
G1 X152.272 Y151.743 E.03277
;WIDTH:0.604229
G1 X152.032 Y151.297 E.0341
;WIDTH:0.65113
G1 X151.727 Y150.744 E.04622
G1 X151.722 Y150.666 E.00572
G1 X152.103 Y150.021 E.05482
G1 X152.318 Y150.598 E.04506
G1 X152.516 Y151.064 E.03705
;WIDTH:0.604229
G1 X152.715 Y151.53 E.03412
;WIDTH:0.557328
G1 X152.762 Y151.646 E.0077
;WIDTH:0.551989
G1 X152.962 Y152.176 E.03445
;WIDTH:0.588746
G1 X153.055 Y152.435 E.018
;WIDTH:0.625504
G1 X153.148 Y152.693 E.01919
G1 X153.018 Y153.075 E.02824
;WIDTH:0.598397
G1 X152.927 Y153.326 E.01778
;WIDTH:0.576439
G1 X152.744 Y153.692 E.02613
;WIDTH:0.597676
G1 X152.597 Y153.793 E.01186
;WIDTH:0.639513
G1 X152.512 Y153.797 E.0061
;WIDTH:0.68135
G1 X152.427 Y153.801 E.00655
;WIDTH:0.723187
G1 X152.342 Y153.805 E.00699
;WIDTH:0.765024
G1 X152.257 Y153.809 E.00744
;WIDTH:0.806861
G1 X152.177 Y153.813 E.00742
G1 E-4.2 F3600
;WIPE_START
G1 F7200
G1 X152.126 Y153.763 E-.03393
G1 X152.165 Y153.71 E-.03126
G1 X152.205 Y153.656 E-.03192
G1 X152.263 Y153.537 E-.06288
G1 X152.321 Y153.417 E-.06331
G1 X152.38 Y153.298 E-.06309
G1 X152.438 Y153.178 E-.06331
G1 X152.562 Y152.736 E-.21806
G1 X152.52 Y152.486 E-.12041
G1 X152.477 Y152.235 E-.12096
G1 X152.272 Y151.743 E-.25318
G1 X152.032 Y151.297 E-.24058
G1 X151.727 Y150.744 E-.29998
G1 X151.722 Y150.666 E-.03713
G1 X151.893 Y150.376 E-.16
;WIPE_END
G1 X148.163 Y152.655 F9000
G1 E6 F2400
;TYPE:External perimeter
;WIDTH:0.895141
G1 F1200
G1 X148.211 Y152.373 E.02964
G1 E-4.2 F3600
;WIPE_START
G1 F7200
G1 X148.163 Y152.655 E-.13588
;WIPE_END
G1 E-1.66412 F3600
G1 X145.67 Y151.602 F9000
G1 E6 F2400
;WIDTH:0.705527
G1 F1200
G1 X145.54 Y151.821 E.02037
G1 E-4.2 F3600
;WIPE_START
G1 F7200
G1 X145.67 Y151.602 E-.12097
;WIPE_END
G1 E-1.67903 F3600
G1 X147.65 Y150.139 F9000
G1 E6 F2400
;TYPE:Perimeter
;WIDTH:0.533637
G1 F1200
G1 X147.003 Y149.992 E.03883
G1 X147.002 Y149.796 E.01147
;WIDTH:0.581258
G1 X147.025 Y149.739 E.00396
;WIDTH:0.62888
G1 X147.048 Y149.681 E.00439
;WIDTH:0.676502
G1 X147.071 Y149.623 E.00476
;WIDTH:0.724123
G1 X147.094 Y149.565 E.00513
;WIDTH:0.771745
G1 X147.117 Y149.507 E.0055
;WIDTH:0.819367
G1 X147.14 Y149.449 E.00588
;WIDTH:0.866989
G1 X147.163 Y149.391 E.00625
G1 X147.204 Y149.436 E.00609
;WIDTH:0.819367
G1 X147.246 Y149.481 E.0058
;WIDTH:0.771745
G1 X147.287 Y149.526 E.00537
;WIDTH:0.724123
G1 X147.329 Y149.571 E.00507
;WIDTH:0.676502
G1 X147.37 Y149.616 E.00465
;WIDTH:0.62888
G1 X147.412 Y149.661 E.00433
;WIDTH:0.581258
G1 X147.454 Y149.706 E.00397
;WIDTH:0.533637
G1 X147.613 Y150.057 E.02255
G1 E-4.2 F3600
;WIPE_START
G1 F7200
G1 X147.003 Y149.992 E-.29139
G1 X147.002 Y149.796 E-.0931
G1 X147.025 Y149.739 E-.0292
G1 X147.048 Y149.681 E-.02964
G1 X147.071 Y149.623 E-.02964
G1 X147.094 Y149.565 E-.02964
G1 X147.117 Y149.507 E-.02964
G1 X147.14 Y149.449 E-.02964
G1 X147.163 Y149.391 E-.02964
G1 X147.204 Y149.436 E-.02892
G1 X147.246 Y149.481 E-.02924
G1 X147.287 Y149.526 E-.02892
G1 X147.329 Y149.571 E-.02924
G1 X147.37 Y149.616 E-.02892
G1 X147.412 Y149.661 E-.02924
G1 X147.454 Y149.706 E-.02924
G1 X147.613 Y150.057 E-.18303
;WIPE_END
G1 E-.82172 F3600
G1 X155.606 Y155.389 F9000
G1 E6 F2400
;WIDTH:0.813742
G1 F1200
G1 X155.881 Y154.777 E.06271
G1 X156.2 Y153.956 E.08232
G1 X156.517 Y154.258 E.04092
G1 X156.752 Y154.402 E.02576
G1 X157.153 Y154.562 E.04035
G1 X156.746 Y154.802 E.04416
G1 X155.687 Y155.35 E.11145
G1 E-4.2 F3600
;WIPE_START
G1 F7200
G1 X155.881 Y154.777 E-.28735
G1 X156.2 Y153.956 E-.41838
G1 X156.517 Y154.258 E-.20797
G1 X156.752 Y154.402 E-.13091
G1 X157.153 Y154.562 E-.20508
G1 X156.746 Y154.802 E-.22443
G1 X156.137 Y155.117 E-.32588
;WIPE_END
G1 X129.72 Y146.778 F9000
G1 E6 F2400
;WIDTH:0.63
G1 F1200
G1 X129.399 Y146.543 E.02807
G1 X128.856 Y146.219 E.04461
G1 X128.381 Y146.076 E.035
G1 X127.531 Y145.995 E.06024
G1 X126.83 Y146.073 E.04976
G1 X126.144 Y146.301 E.051
G1 X125.493 Y146.704 E.05401
G1 X124.987 Y147.219 E.05093
G1 X124.988 Y145.205 E.14208
G1 X125.074 Y144.703 E.03593
G1 X125.253 Y144.448 E.02198
G1 X125.525 Y144.284 E.02241
G1 X125.848 Y144.199 E.02356
G1 X149.201 Y142.771 E1.65056
G1 X150.057 Y142.747 E.06041
G1 X151.082 Y142.783 E.07236
G1 X151.847 Y142.86 E.05424
G1 X152.629 Y142.984 E.05586
G1 X153.674 Y143.221 E.07559
G1 X154.44 Y143.448 E.05636
G1 X155.451 Y143.822 E.07605
G1 X156.268 Y144.193 E.0633
G1 X157.141 Y144.662 E.06991
G1 X158.125 Y145.302 E.08281
G1 X158.735 Y145.745 E.05318
G1 X159.483 Y146.373 E.0689
G1 X160.118 Y146.983 E.06212
;WIDTH:0.638533
G1 X160.567 Y147.478 E.04786
;WIDTH:0.66382
G1 X160.722 Y147.68 E.01904
;WIDTH:0.689107
G1 X160.876 Y147.881 E.01973
G1 X160.602 Y147.722 E.02468
;WIDTH:0.656523
G1 X160.03 Y147.604 E.04313
;WIDTH:0.63
G1 X157.908 Y147.603 E.1497
G1 X157.373 Y147.663 E.03798
G1 X156.898 Y147.895 E.03729
G1 X156.759 Y148.014 E.01291
G1 X156.451 Y147.753 E.02848
G1 X156.066 Y147.618 E.02878
G1 X155.774 Y147.618 E.0206
G1 X155.456 Y147.701 E.02319
G1 X155.147 Y147.859 E.02448
G1 X154.765 Y148.295 E.04089
G1 X154.552 Y148.685 E.03135
G1 X154.283 Y148.18 E.04037
G1 X154.026 Y147.911 E.02625
G1 X153.623 Y147.705 E.03193
G1 X153.322 Y147.621 E.02205
G1 X152.855 Y147.629 E.03295
G1 X152.448 Y147.766 E.0303
G1 X152.155 Y148.032 E.02792
G1 X152.077 Y147.945 E.00824
G1 X151.66 Y147.682 E.03478
G1 X151.236 Y147.608 E.03036
G1 X150.918 Y147.642 E.02256
G1 X150.497 Y147.836 E.0327
G1 X150.177 Y148.142 E.03124
G1 X150.012 Y147.945 E.01813
G1 X149.667 Y147.728 E.02875
G1 X149.318 Y147.616 E.02586
G1 X148.916 Y147.623 E.02836
G1 X148.393 Y147.814 E.03928
G1 X148.129 Y148.032 E.02415
G1 X147.931 Y148.315 E.02437
G1 X147.795 Y148.734 E.03108
G1 X147.812 Y149.152 E.02951
G1 X147.932 Y149.51 E.02664
G1 X148.214 Y150.084 E.04512
G1 X148.603 Y150.76 E.05502
G1 X148.282 Y151.274 E.04275
G1 X148.031 Y150.971 E.02776
G1 X147.594 Y150.682 E.03696
G1 X147.294 Y150.568 E.02264
G1 X146.68 Y150.488 E.04368
G1 X146.467 Y150.526 E.01526
G1 X146.486 Y150.019 E.03579
G1 X146.472 Y149.358 E.04664
G1 X146.38 Y148.779 E.04136
G1 X146.27 Y148.42 E.02649
G1 X146.068 Y147.888 E.04015
G1 X145.747 Y147.366 E.04323
G1 X145.383 Y146.965 E.03821
G1 X144.913 Y146.615 E.04134
G1 X144.411 Y146.389 E.03884
G1 X143.865 Y146.253 E.0397
G1 X143.342 Y146.19 E.03716
G1 X141.754 Y146.154 E.11206
G1 X141.276 Y146.204 E.03391
G1 X140.847 Y146.369 E.03243
G1 X140.523 Y146.638 E.02971
G1 X140.298 Y147.018 E.03115
G1 X140.25 Y147.218 E.01451
;WIDTH:0.617294
G1 X140.239 Y147.499 E.01939
G1 X140.141 Y147.23 E.01974
;WIDTH:0.63
G1 X139.775 Y146.721 E.04423
G1 X139.55 Y146.515 E.02152
G1 X138.947 Y146.183 E.04856
G1 X138.286 Y146.025 E.04795
G1 X137.534 Y145.999 E.05308
G1 X136.754 Y146.134 E.05584
G1 X136.12 Y146.409 E.04875
G1 X135.781 Y146.695 E.03129
G1 X135.496 Y146.387 E.0296
G1 X135.269 Y146.277 E.0178
G1 X134.776 Y146.164 E.03568
G1 X131.507 Y146.175 E.23062
